Hatter-kde-dark/actions/22/kmouth-phrasebook.svg

<?xml version="1.0" encoding="UTF-8"?>
<svg viewBox="0 0 22 22" xmlns="http://www.w3.org/2000/svg">
 <defs id="defs3051">
  <style id="current-color-scheme" type="text/css">.ColorScheme-Text {
        color:#dedede;
      }</style>
 </defs>
 <path class="ColorScheme-Text" d="m7 4v3h-4v8l3 3v-3h9v-3h1v3l3-3v-8h-12zm1 1h10v6h-3-1-6v-3-1-2zm-4 3h3v4h7v2h-10v-6z" fill="currentColor"/>
</svg>

<svg xmlns="http://www.w3.org/2000/svg" viewBox="0 0 22 22">
  <defs id="defs3051">
    <style type="text/css" id="current-color-scheme">
      .ColorScheme-Text {
        color:#dedede;
      }
      </style>
  </defs>
 <path 
     style="fill:currentColor;fill-opacity:1;stroke:none" 
     d="M 7 4 L 7 7 L 3 7 L 3 15 L 6 18 L 6 15 L 15 15 L 15 12 L 16 12 L 16 15 L 19 12 L 19 4 L 7 4 z M 8 5 L 18 5 L 18 11 L 15 11 L 14 11 L 8 11 L 8 8 L 8 7 L 8 5 z M 4 8 L 7 8 L 7 12 L 14 12 L 14 14 L 4 14 L 4 8 z "
     class="ColorScheme-Text"
     />
</svg>
